X: 1105
T: Amhrán Na Leabhar
R: waltz
M: 3/4
K: Ddorian
|:A2|D4E2|F4G2|Ad3-d2-|d4e2|d4c2|A4G2|AB c4-|c4d2|
D4E2|F4E2|FG A4-|A4G2|E4D2-|D4D2|D6-|D4:|
|:c2|d2d4|d4c2|de f4-|f4e2|d4c2|A4G2|A6-|A4B2|
c6|c4B2|c2d4-|d4c2|A4G2|F4G2|A6-|A4A2|
D4E2|F4G2|A2d4-|d4e2|d4c2|A4G2|AB c4-|c4d2|
D4E2|F4E2|FG A4-|A4G2|E2D4-|D4D2|D6-|D4:|

